X: 16632
T: Hangman's Rope, The
R: hornpipe
M: 4/4
K: Gmajor
(3DEF|"G"G2BG DGBd|"G"g2fg d3e|"F"=f2fe fdcA|"C"c2 cB "D7"cAFD|
"G"G2 BG DGBd|"G"g2 fg d3 e|"F"=f2ef "Dm"dc (3ABc|"G"B2 "C"G2 "G"G2:|
Bc|"G"dg~g2 dgBg|"G"dgBg "D"a2 ga|"Em"bagf gdBd|"C"cBAG "D"A2 Bc|
"G"dg~g2 dgBg|"G"dgBg "D"a2 ga|"Em"bagf "G"gd "D7"(3ABc|"G"B2 "C"G2 "G"G2:|

